dist/img/svg/ic_build.svg

<svg xmlns="http://www.w3.org/2000/svg" viewBox="0 0 24 24"><path d="M18 15h-2v2h2m0-6h-2v2h2m2 6h-8v-2h2v-2h-2v-2h2v-2h-2V9h8M10 7H8V5h2m0 6H8V9h2m0 6H8v-2h2m0 6H8v-2h2M6 7H4V5h2m0 6H4V9h2m0 6H4v-2h2m0 6H4v-2h2m6-10V3H2v18h20V7H12z"/></svg>

<svg xmlns="http://www.w3.org/2000/svg" viewBox="0 0 24 24"><path d="M18,15H16V17H18M18,11H16V13H18M20,19H12V17H14V15H12V13H14V11H12V9H20M10,7H8V5H10M10,11H8V9H10M10,15H8V13H10M10,19H8V17H10M6,7H4V5H6M6,11H4V9H6M6,15H4V13H6M6,19H4V17H6M12,7V3H2V21H22V7H12Z" /></svg>
